X:0733
M:6/8
L:1/8
Q:3/8=104
K:D
      (fd).d (dB).B|(ge).e   (ec).c|Td>ef  edc      |   ddd  d2      :|
       ddd    Bee  |(cf).f   (dg).g| egg   fed      |[1 eAc  d/c/f/e/:|\
                                                     [2 eAc  d2      |]

